X:144
T: VOEGLEIN IM HOHEN BAUM
N: B0634
O: Europa, Mitteleuropa, Deutschland
R: Kinder - Lied, Tier; Moral
M: 3/4
L: 1/8
K: G
 | G2G2G2 | B3AG2 |
B2B2B2 | d3cB2 |
d2c2B2 | A4z2 |
A2G2F2 | G3AB2 |
c2B2A2 | B3cd2 |
dcB2A2 | G4z2

@@@ Tune index: 2362
